Sources/FrostedUI/Resources/Icons.xcassets/couponExpired24.imageset/coupon-expired-24.svg

<svg width="24" height="24" viewBox="0 0 24 24" fill="none" xmlns="http://www.w3.org/2000/svg" data-fui-icon="true">
  <path
    d="M7.81445 0.5C8.50919 0.5 9.03198 0.964335 9.26367 1.47949C9.73401 2.52476 10.7828 3.25 12 3.25C13.2172 3.25 14.266 2.52476 14.7363 1.47949C14.968 0.964335 15.4908 0.5 16.1855 0.5H19.25C20.4926 0.5 21.5 1.50736 21.5 2.75V21.25C21.5 22.4926 20.4926 23.5 19.25 23.5H16.1855C15.4908 23.5 14.968 23.0357 14.7363 22.5205C14.266 21.4752 13.2172 20.75 12 20.75C10.7828 20.75 9.73401 21.4752 9.26367 22.5205C9.03198 23.0357 8.50919 23.5 7.81445 23.5H4.75C3.50736 23.5 2.5 22.4926 2.5 21.25V2.75C2.5 1.50736 3.50736 0.5 4.75 0.5H7.81445ZM4.75 2C4.33579 2 4 2.33579 4 2.75V21.25C4 21.6642 4.33579 22 4.75 22H7.81445C7.8088 22.0001 7.814 22.0026 7.83105 21.9902C7.8508 21.9758 7.87677 21.9469 7.89551 21.9053C8.59896 20.3416 10.1707 19.25 12 19.25C13.8293 19.25 15.401 20.3416 16.1045 21.9053C16.1232 21.9469 16.1492 21.9758 16.1689 21.9902C16.186 22.0026 16.1912 22.0001 16.1855 22H19.25C19.6642 22 20 21.6642 20 21.25V2.75C20 2.33579 19.6642 2 19.25 2H16.1855C16.1912 1.99991 16.186 1.99737 16.1689 2.00977C16.1492 2.02424 16.1232 2.05306 16.1045 2.09473C15.401 3.65839 13.8293 4.75 12 4.75C10.1707 4.75 8.59896 3.65839 7.89551 2.09473C7.87677 2.05306 7.8508 2.02424 7.83105 2.00977C7.814 1.99737 7.8088 1.99991 7.81445 2H4.75ZM15.7197 7.21973C16.0126 6.92683 16.4874 6.92683 16.7803 7.21973C17.0732 7.51262 17.0732 7.98738 16.7803 8.28027L13.0605 12L16.7803 15.7197C17.0732 16.0126 17.0732 16.4874 16.7803 16.7803C16.4874 17.0732 16.0126 17.0732 15.7197 16.7803L12 13.0605L8.28027 16.7803C7.98738 17.0732 7.51262 17.0732 7.21973 16.7803C6.92683 16.4874 6.92683 16.0126 7.21973 15.7197L10.9395 12L7.21973 8.28027C6.92683 7.98738 6.92683 7.51262 7.21973 7.21973C7.51262 6.92683 7.98738 6.92683 8.28027 7.21973L12 10.9395L15.7197 7.21973Z"
    fill="currentColor"
  />
</svg>

<svg xmlns="http://www.w3.org/2000/svg" width="24" height="24" fill="none" data-fui-icon="true" viewBox="0 0 24 24"><path fill="currentColor" d="M7.814.5c.695 0 1.218.464 1.45.98a3 3 0 0 0 5.472 0c.232-.516.755-.98 1.45-.98h3.064a2.25 2.25 0 0 1 2.25 2.25v18.5a2.25 2.25 0 0 1-2.25 2.25h-3.064c-.695 0-1.218-.464-1.45-.98a3 3 0 0 0-5.472 0c-.232.516-.755.98-1.45.98H4.75a2.25 2.25 0 0 1-2.25-2.25V2.75A2.25 2.25 0 0 1 4.75.5zM4.75 2a.75.75 0 0 0-.75.75v18.5c0 .414.336.75.75.75h3.064c-.005 0 0 .003.017-.01a.2.2 0 0 0 .065-.085 4.5 4.5 0 0 1 8.209 0c.018.042.044.07.064.085.017.013.022.01.017.01h3.064a.75.75 0 0 0 .75-.75V2.75a.75.75 0 0 0-.75-.75h-3.064c.005 0 0-.003-.017.01a.2.2 0 0 0-.064.085 4.5 4.5 0 0 1-8.21 0 .2.2 0 0 0-.064-.085C7.814 1.997 7.81 2 7.814 2zm10.97 5.22a.75.75 0 1 1 1.06 1.06L13.06 12l3.72 3.72a.75.75 0 1 1-1.06 1.06L12 13.06l-3.72 3.72a.75.75 0 1 1-1.06-1.06L10.94 12 7.22 8.28a.75.75 0 1 1 1.06-1.06L12 10.94z"/></svg>
